X: 1
T: Johnny From Gandsey
M: 4/4
L: 1/8
R: reel
K: Bmin
FBBA BdcB|AFEF A4|FB~B2 dBAF|ABde f3a|
bafa bafe|dBAB d3e|fgfe dBAF|1 FEFA B3A:|2 FEFA B3a||
bafa bafb|afef a3b|bafe dBAF|ABde f3a|
bafa bafe|dBAB d3e|fgfe dBAF|1 FEFA B3a:|2 FEFA B3A||
